src/images/svg/symbols/tron_flag.svg

<svg width="32" height="32" viewBox="0 0 32 32" fill="none" xmlns="http://www.w3.org/2000/svg">
<path d="M0 16C0 7.16344 7.16344 0 16 0C24.8366 0 32 7.16344 32 16C32 24.8366 24.8366 32 16 32C7.16344 32 0 24.8366 0 16Z" fill="#DC062B"/>
<path d="M20.4733 10.2235L8.39062 8L14.7493 24L23.6091 13.2057L20.4733 10.2235ZM20.2788 11.2032L22.1271 12.9599L17.0719 13.8753L20.2788 11.2032ZM15.9742 13.6922L10.6459 9.27325L19.3544 10.8756L15.9742 13.6922ZM15.5944 14.4737L14.7259 21.6562L10.0414 9.86789L15.5944 14.4737ZM16.3986 14.855L21.9962 13.8412L15.5755 21.6638L16.3986 14.855Z" fill="white"/>
</svg>

<svg width="32" height="32" fill="none" xmlns="http://www.w3.org/2000/svg"><path d="M0 16C0 7.163 7.163 0 16 0s16 7.163 16 16-7.163 16-16 16S0 24.837 0 16Z" fill="#DC062B"/><path d="M20.473 10.223 8.391 8l6.358 16 8.86-10.794-3.136-2.982Zm-.194.98 1.848 1.757-5.055.915 3.207-2.672Zm-4.305 2.49-5.328-4.42 8.708 1.603-3.38 2.816Zm-.38.78-.868 7.183L10.04 9.868l5.553 4.606Zm.805.382 5.597-1.014-6.42 7.823.823-6.809Z" fill="#fff"/></svg>
